lib/assets/svg/button/enSG_add_to_google_wallet_wallet-button.svg

<svg fill="none" height="50" viewBox="0 0 283 50" width="283" xmlns="http://www.w3.org/2000/svg" xmlns:xlink="http://www.w3.org/1999/xlink"><linearGradient id="a" gradientUnits="userSpaceOnUse" x1="34.5703" x2="18.7309" y1="30.7864" y2="48.9133"><stop offset="0" stop-color="#4285f4"/><stop offset="1" stop-color="#1b74e8"/></linearGradient><rect fill="#1f1f1f" height="49" rx="24.5" width="282" x=".5" y=".5"/><path d="m51 22h-30v-5c0-2.7143 2.2018-5 4.8165-5h20.367c2.6147 0 4.8165 2.2857 4.8165 5z" fill="#34a853"/><path d="m51 26.0537h-30v-5c0-2.7143 2.2018-5 4.8165-5h20.367c2.6147 0 4.8165 2.2857 4.8165 5z" fill="#fbbc04"/><path d="m51 30.2468h-30v-5c0-2.7143 2.2018-5 4.8165-5h20.367c2.6147 0 4.8165 2.2857 4.8165 5z" fill="#ea4335"/><path d="m21 23.2752 19.0411 4.4037c2.1918.5505 4.6575 0 6.4384-1.3761l4.5205-3.3028v10.3211c0 2.6147-2.1918 4.6789-4.7945 4.6789h-20.411c-2.6027 0-4.7945-2.0642-4.7945-4.6789z" fill="url(#a)"/><path d="m63.3 32 5.4-14.32h2.5l5.42 14.32h-2.42l-1.32-3.68h-5.84l-1.32 3.68zm6.06-10.1-1.58 4.38h4.36l-1.58-4.38-.54-1.64h-.12zm12.8928 10.42c-.92 0-1.7533-.2267-2.5-.68-.7333-.4667-1.32-1.1067-1.76-1.92-.4267-.8267-.64-1.7667-.64-2.82s.2133-1.9867.64-2.8c.44-.8133 1.0267-1.4533 1.76-1.92.7467-.4667 1.58-.7 2.5-.7.7867 0 1.46.1733 2.02.52.5733.3467.9933.74 1.26 1.18h.12l-.12-1.42v-4.08h2.14v14.32h-2.02v-1.36h-.12c-.2667.44-.6867.8333-1.26 1.18-.56.3333-1.2333.5-2.02.5zm.32-1.98c.5333 0 1.0333-.14 1.5-.42.48-.28.86-.6733 1.14-1.18.2933-.52.44-1.1333.44-1.84s-.1467-1.3133-.44-1.82c-.28-.52-.66-.92-1.14-1.2-.4667-.28-.9667-.42-1.5-.42s-1.0333.14-1.5.42-.8467.68-1.14 1.2c-.2933.5067-.44 1.1133-.44 1.82s.1467 1.32.44 1.84c.2933.5067.6733.9 1.14 1.18s.9667.42 1.5.42zm11.9066 1.98c-.92 0-1.7534-.2267-2.5-.68-.7334-.4667-1.32-1.1067-1.76-1.92-.4267-.8267-.64-1.7667-.64-2.82s.2133-1.9867.64-2.8c.44-.8133 1.0266-1.4533 1.76-1.92.7466-.4667 1.58-.7 2.5-.7.7866 0 1.46.1733 2.02.52.5733.3467.9933.74 1.26 1.18h.12l-.12-1.42v-4.08h2.14v14.32h-2.02v-1.36h-.12c-.2667.44-.6867.8333-1.26 1.18-.56.3333-1.2334.5-2.02.5zm.32-1.98c.5333 0 1.0333-.14 1.5-.42.48-.28.86-.6733 1.14-1.18.2933-.52.44-1.1333.44-1.84s-.1467-1.3133-.44-1.82c-.28-.52-.66-.92-1.14-1.2-.4667-.28-.9667-.42-1.5-.42-.5334 0-1.0334.14-1.5.42-.4667.28-.8467.68-1.14 1.2-.2934.5067-.44 1.1133-.44 1.82s.1466 1.32.44 1.84c.2933.5067.6733.9 1.14 1.18.4666.28.9666.42 1.5.42zm13.3926-1.3v-5.36h-1.78v-1.88h1.78v-2.88h2.16v2.88h2.5v1.88h-2.5v4.9c0 .5067.1.8933.3 1.16.213.2667.566.4 1.06.4.253 0 .466-.0333.64-.1.186-.0667.373-.16.56-.28v2.1c-.227.0933-.467.1667-.72.22-.254.0533-.554.08-.9.08-.947 0-1.7-.2733-2.26-.82-.56-.56-.84-1.3267-.84-2.3zm11.141 3.28c-1.053 0-1.98-.24-2.78-.72s-1.426-1.1267-1.88-1.94c-.453-.8133-.68-1.7333-.68-2.76 0-1.0133.227-1.9267.68-2.74.454-.8267 1.08-1.48 1.88-1.96s1.727-.72 2.78-.72c1.04 0 1.96.24 2.76.72s1.427 1.1333 1.88 1.96c.454.8133.68 1.7267.68 2.74 0 1.0267-.226 1.9467-.68 2.76-.453.8133-1.08 1.46-1.88 1.94s-1.72.72-2.76.72zm0-1.98c.56 0 1.08-.1333 1.56-.4.48-.28.867-.6733 1.16-1.18.307-.52.46-1.14.46-1.86s-.153-1.3333-.46-1.84c-.293-.52-.68-.9133-1.16-1.18-.48-.28-1-.42-1.56-.42s-1.086.14-1.58.42c-.48.2667-.873.66-1.18 1.18-.293.5067-.44 1.12-.44 1.84s.147 1.34.44 1.86c.307.5067.7.9 1.18 1.18.494.2667 1.02.4 1.58.4z" fill="#fff"/><path d="m139.4 32.32c-1.027 0-1.993-.1867-2.9-.56-.893-.3733-1.687-.8933-2.38-1.56-.693-.68-1.24-1.4733-1.64-2.38-.387-.92-.58-1.9133-.58-2.98s.193-2.0533.58-2.96c.4-.92.94-1.7133 1.62-2.38.693-.68 1.493-1.2067 2.4-1.58s1.873-.56 2.9-.56c1.093 0 2.1.1933 3.02.58.933.3867 1.713.9267 2.34 1.62l-1.52 1.5c-.467-.52-1.027-.92-1.68-1.2-.64-.28-1.36-.42-2.16-.42-.947 0-1.82.2267-2.62.68-.8.44-1.447 1.0667-1.94 1.88-.48.8-.72 1.7467-.72 2.84s.247 2.0467.74 2.86c.493.8 1.14 1.4267 1.94 1.88.8.44 1.673.66 2.62.66.867 0 1.653-.16 2.36-.48.707-.3333 1.273-.8 1.7-1.4.44-.6.707-1.32.8-2.16h-4.9v-1.94h6.96c.08.36.12.74.12 1.14v.02c0 1.3867-.307 2.6-.92 3.64-.6 1.0267-1.433 1.8267-2.5 2.4s-2.28.86-3.64.86zm13.5 0c-1.053 0-1.98-.24-2.78-.72s-1.427-1.1267-1.88-1.94-.68-1.7333-.68-2.76c0-1.0133.227-1.9267.68-2.74.453-.8267 1.08-1.48 1.88-1.96s1.727-.72 2.78-.72c1.04 0 1.96.24 2.76.72s1.427 1.1333 1.88 1.96c.453.8133.68 1.7267.68 2.74 0 1.0267-.227 1.9467-.68 2.76s-1.08 1.46-1.88 1.94-1.72.72-2.76.72zm0-1.98c.56 0 1.08-.1333 1.56-.4.48-.28.867-.6733 1.16-1.18.307-.52.46-1.14.46-1.86s-.153-1.3333-.46-1.84c-.293-.52-.68-.9133-1.16-1.18-.48-.28-1-.42-1.56-.42s-1.087.14-1.58.42c-.48.2667-.873.66-1.18 1.18-.293.5067-.44 1.12-.44 1.84s.147 1.34.44 1.86c.307.5067.7.9 1.18 1.18.493.2667 1.02.4 1.58.4zm12.109 1.98c-1.053 0-1.98-.24-2.78-.72s-1.426-1.1267-1.88-1.94c-.453-.8133-.68-1.7333-.68-2.76 0-1.0133.227-1.9267.68-2.74.454-.8267 1.08-1.48 1.88-1.96s1.727-.72 2.78-.72c1.04 0 1.96.24 2.76.72s1.427 1.1333 1.88 1.96c.454.8133.68 1.7267.68 2.74 0 1.0267-.226 1.9467-.68 2.76-.453.8133-1.08 1.46-1.88 1.94s-1.72.72-2.76.72zm0-1.98c.56 0 1.08-.1333 1.56-.4.48-.28.867-.6733 1.16-1.18.307-.52.46-1.14.46-1.86s-.153-1.3333-.46-1.84c-.293-.52-.68-.9133-1.16-1.18-.48-.28-1-.42-1.56-.42s-1.086.14-1.58.42c-.48.2667-.873.66-1.18 1.18-.293.5067-.44 1.12-.44 1.84s.147 1.34.44 1.86c.307.5067.7.9 1.18 1.18.494.2667 1.02.4 1.58.4zm11.91 6.3c-.894 0-1.667-.1467-2.32-.44-.64-.28-1.16-.6467-1.56-1.1-.4-.44-.687-.8933-.86-1.36l2-.84c.213.5333.553.9667 1.02 1.3.48.3467 1.053.52 1.72.52.933 0 1.666-.28 2.2-.84.546-.56.82-1.3533.82-2.38v-.98h-.12c-.32.48-.767.8667-1.34 1.16-.56.28-1.2.42-1.92.42-.867 0-1.66-.22-2.38-.66s-1.3-1.0533-1.74-1.84c-.44-.8-.66-1.7333-.66-2.8 0-1.08.22-2.0133.66-2.8.44-.8 1.02-1.42 1.74-1.86s1.513-.66 2.38-.66c.72 0 1.36.1467 1.92.44.573.2933 1.02.68 1.34 1.16h.12v-1.28h2.06v9.66c0 1.1067-.22 2.0467-.66 2.82-.427.7733-1.02 1.36-1.78 1.76s-1.64.6-2.64.6zm.02-6.5c.533 0 1.026-.1267 1.48-.38.453-.2667.82-.6467 1.1-1.14.28-.5067.42-1.1133.42-1.82 0-.7333-.14-1.3467-.42-1.84-.28-.5067-.647-.8867-1.1-1.14-.454-.2533-.947-.38-1.48-.38-.534 0-1.034.1333-1.5.4-.454.2533-.82.6267-1.1 1.12s-.42 1.1067-.42 1.84c0 .72.14 1.3333.42 1.84.28.4933.646.8667 1.1 1.12.466.2533.966.38 1.5.38zm7.607 1.86v-14.32h2.16v14.32zm9.269.32c-1 0-1.894-.2333-2.68-.7-.787-.4667-1.407-1.1067-1.86-1.92-.44-.8133-.66-1.74-.66-2.78 0-.9733.213-1.8733.64-2.7.426-.8267 1.02-1.4867 1.78-1.98.773-.5067 1.66-.76 2.66-.76 1.053 0 1.946.2267 2.68.68.746.4533 1.313 1.0733 1.7 1.86.386.7867.58 1.6733.58 2.66 0 .1467-.007.28-.02.4 0 .12-.007.2133-.02.28h-7.88c.106 1.0133.46 1.7733 1.06 2.28.613.5067 1.306.76 2.08.76.693 0 1.266-.1533 1.72-.46.453-.32.813-.7133 1.08-1.18l1.78.86c-.44.8-1.04 1.4533-1.8 1.96-.76.4933-1.707.74-2.84.74zm-.1-9c-.72 0-1.334.22-1.84.66-.507.44-.847 1.0267-1.02 1.76h5.66c-.027-.3467-.14-.7067-.34-1.08s-.507-.6867-.92-.94c-.4-.2667-.914-.4-1.54-.4zm13.731 8.68-3.84-14.32h2.44l2.28 9.3.24 1.24h.12l.3-1.24 2.88-9.3h2.2l2.76 9.3.3 1.22h.12l.24-1.22 2.28-9.3h2.42l-3.78 14.32h-2.32l-2.74-9.5-.32-1.34h-.12l-.34 1.34-2.86 9.5zm18.756.32c-.733 0-1.386-.14-1.96-.42-.573-.2933-1.02-.7-1.34-1.22s-.48-1.1133-.48-1.78c0-.72.187-1.3333.56-1.84.387-.52.9-.9133 1.54-1.18s1.347-.4 2.12-.4c.64 0 1.2.06 1.68.18.494.12.867.2467 1.12.38v-.54c0-.6667-.24-1.2-.72-1.6s-1.1-.6-1.86-.6c-.52 0-1.013.12-1.48.36-.466.2267-.84.54-1.12.94l-1.48-1.14c.44-.6133 1.02-1.0933 1.74-1.44.734-.36 1.534-.54 2.4-.54 1.48 0 2.62.3667 3.42 1.1.8.72 1.2 1.7333 1.2 3.04v6.38h-2.1v-1.26h-.12c-.266.4133-.666.78-1.2 1.1-.533.32-1.173.48-1.92.48zm.38-1.76c.56 0 1.054-.1333 1.48-.4.427-.2667.76-.6133 1-1.04.254-.44.38-.9133.38-1.42-.306-.1733-.666-.3133-1.08-.42-.413-.12-.853-.18-1.32-.18-.88 0-1.506.18-1.88.54-.373.3467-.56.7733-.56 1.28 0 .48.18.8733.54 1.18s.84.46 1.44.46zm7.358 1.44v-14.32h2.16v14.32zm4.727 0v-14.32h2.16v14.32zm9.269.32c-1 0-1.894-.2333-2.68-.7-.787-.4667-1.407-1.1067-1.86-1.92-.44-.8133-.66-1.74-.66-2.78 0-.9733.213-1.8733.64-2.7.426-.8267 1.02-1.4867 1.78-1.98.773-.5067 1.66-.76 2.66-.76 1.053 0 1.946.2267 2.68.68.746.4533 1.313 1.0733 1.7 1.86.386.7867.58 1.6733.58 2.66 0 .1467-.007.28-.02.4 0 .12-.007.2133-.02.28h-7.88c.106 1.0133.46 1.7733 1.06 2.28.613.5067 1.306.76 2.08.76.693 0 1.266-.1533 1.72-.46.453-.32.813-.7133 1.08-1.18l1.78.86c-.44.8-1.04 1.4533-1.8 1.96-.76.4933-1.707.74-2.84.74zm-.1-9c-.72 0-1.334.22-1.84.66-.507.44-.847 1.0267-1.02 1.76h5.66c-.027-.3467-.14-.7067-.34-1.08s-.507-.6867-.92-.94c-.4-.2667-.914-.4-1.54-.4zm7.731 5.72v-5.36h-1.78v-1.88h1.78v-2.88h2.16v2.88h2.5v1.88h-2.5v4.9c0 .5067.1.8933.3 1.16.213.2667.566.4 1.06.4.253 0 .466-.0333.64-.1.186-.0667.373-.16.56-.28v2.1c-.227.0933-.467.1667-.72.22-.254.0533-.554.08-.9.08-.947 0-1.7-.2733-2.26-.82-.56-.56-.84-1.3267-.84-2.3z" fill="#fff"/><rect height="49" rx="24.5" stroke="#747775" width="282" x=".5" y=".5"/></svg>

<svg width="283" height="50" viewBox="0 0 283 50" fill="none" xmlns="http://www.w3.org/2000/svg">
<rect x="0.5" y="0.5" width="282" height="49" rx="24.5" fill="#1F1F1F"/>
<path d="M51 22H21V17C21 14.2857 23.2018 12 25.8165 12H46.1835C48.7982 12 51 14.2857 51 17V22Z" fill="#34A853"/>
<path d="M51 26.0537H21V21.0537C21 18.3394 23.2018 16.0537 25.8165 16.0537H46.1835C48.7982 16.0537 51 18.3394 51 21.0537V26.0537Z" fill="#FBBC04"/>
<path d="M51 30.2468H21V25.2468C21 22.5325 23.2018 20.2468 25.8165 20.2468H46.1835C48.7982 20.2468 51 22.5325 51 25.2468V30.2468Z" fill="#EA4335"/>
<path d="M21 23.2752L40.0411 27.6789C42.2329 28.2294 44.6986 27.6789 46.4795 26.3028L51 23V33.3211C51 35.9358 48.8082 38 46.2055 38H25.7945C23.1918 38 21 35.9358 21 33.3211V23.2752Z" fill="url(#paint0_linear_1819_24139)"/>
<path d="M63.3 32L68.7 17.68H71.2L76.62 32H74.2L72.88 28.32H67.04L65.72 32H63.3ZM69.36 21.9L67.78 26.28H72.14L70.56 21.9L70.02 20.26H69.9L69.36 21.9ZM82.2528 32.32C81.3328 32.32 80.4995 32.0933 79.7528 31.64C79.0195 31.1733 78.4328 30.5333 77.9928 29.72C77.5661 28.8933 77.3528 27.9533 77.3528 26.9C77.3528 25.8467 77.5661 24.9133 77.9928 24.1C78.4328 23.2867 79.0195 22.6467 79.7528 22.18C80.4995 21.7133 81.3328 21.48 82.2528 21.48C83.0395 21.48 83.7128 21.6533 84.2728 22C84.8461 22.3467 85.2661 22.74 85.5328 23.18H85.6528L85.5328 21.76V17.68H87.6728V32H85.6528V30.64H85.5328C85.2661 31.08 84.8461 31.4733 84.2728 31.82C83.7128 32.1533 83.0395 32.32 82.2528 32.32ZM82.5728 30.34C83.1061 30.34 83.6061 30.2 84.0728 29.92C84.5528 29.64 84.9328 29.2467 85.2128 28.74C85.5061 28.22 85.6528 27.6067 85.6528 26.9C85.6528 26.1933 85.5061 25.5867 85.2128 25.08C84.9328 24.56 84.5528 24.16 84.0728 23.88C83.6061 23.6 83.1061 23.46 82.5728 23.46C82.0395 23.46 81.5395 23.6 81.0728 23.88C80.6061 24.16 80.2261 24.56 79.9328 25.08C79.6395 25.5867 79.4928 26.1933 79.4928 26.9C79.4928 27.6067 79.6395 28.22 79.9328 28.74C80.2261 29.2467 80.6061 29.64 81.0728 29.92C81.5395 30.2 82.0395 30.34 82.5728 30.34ZM94.4794 32.32C93.5594 32.32 92.726 32.0933 91.9794 31.64C91.246 31.1733 90.6594 30.5333 90.2194 29.72C89.7927 28.8933 89.5794 27.9533 89.5794 26.9C89.5794 25.8467 89.7927 24.9133 90.2194 24.1C90.6594 23.2867 91.246 22.6467 91.9794 22.18C92.726 21.7133 93.5594 21.48 94.4794 21.48C95.266 21.48 95.9394 21.6533 96.4994 22C97.0727 22.3467 97.4927 22.74 97.7594 23.18H97.8794L97.7594 21.76V17.68H99.8994V32H97.8794V30.64H97.7594C97.4927 31.08 97.0727 31.4733 96.4994 31.82C95.9394 32.1533 95.266 32.32 94.4794 32.32ZM94.7994 30.34C95.3327 30.34 95.8327 30.2 96.2994 29.92C96.7794 29.64 97.1594 29.2467 97.4394 28.74C97.7327 28.22 97.8794 27.6067 97.8794 26.9C97.8794 26.1933 97.7327 25.5867 97.4394 25.08C97.1594 24.56 96.7794 24.16 96.2994 23.88C95.8327 23.6 95.3327 23.46 94.7994 23.46C94.266 23.46 93.766 23.6 93.2994 23.88C92.8327 24.16 92.4527 24.56 92.1594 25.08C91.866 25.5867 91.7194 26.1933 91.7194 26.9C91.7194 27.6067 91.866 28.22 92.1594 28.74C92.4527 29.2467 92.8327 29.64 93.2994 29.92C93.766 30.2 94.266 30.34 94.7994 30.34ZM108.192 29.04V23.68H106.412V21.8H108.192V18.92H110.352V21.8H112.852V23.68H110.352V28.58C110.352 29.0867 110.452 29.4733 110.652 29.74C110.865 30.0067 111.218 30.14 111.712 30.14C111.965 30.14 112.178 30.1067 112.352 30.04C112.538 29.9733 112.725 29.88 112.912 29.76V31.86C112.685 31.9533 112.445 32.0267 112.192 32.08C111.938 32.1333 111.638 32.16 111.292 32.16C110.345 32.16 109.592 31.8867 109.032 31.34C108.472 30.78 108.192 30.0133 108.192 29.04ZM119.333 32.32C118.28 32.32 117.353 32.08 116.553 31.6C115.753 31.12 115.127 30.4733 114.673 29.66C114.22 28.8467 113.993 27.9267 113.993 26.9C113.993 25.8867 114.22 24.9733 114.673 24.16C115.127 23.3333 115.753 22.68 116.553 22.2C117.353 21.72 118.28 21.48 119.333 21.48C120.373 21.48 121.293 21.72 122.093 22.2C122.893 22.68 123.52 23.3333 123.973 24.16C124.427 24.9733 124.653 25.8867 124.653 26.9C124.653 27.9267 124.427 28.8467 123.973 29.66C123.52 30.4733 122.893 31.12 122.093 31.6C121.293 32.08 120.373 32.32 119.333 32.32ZM119.333 30.34C119.893 30.34 120.413 30.2067 120.893 29.94C121.373 29.66 121.76 29.2667 122.053 28.76C122.36 28.24 122.513 27.62 122.513 26.9C122.513 26.18 122.36 25.5667 122.053 25.06C121.76 24.54 121.373 24.1467 120.893 23.88C120.413 23.6 119.893 23.46 119.333 23.46C118.773 23.46 118.247 23.6 117.753 23.88C117.273 24.1467 116.88 24.54 116.573 25.06C116.28 25.5667 116.133 26.18 116.133 26.9C116.133 27.62 116.28 28.24 116.573 28.76C116.88 29.2667 117.273 29.66 117.753 29.94C118.247 30.2067 118.773 30.34 119.333 30.34Z" fill="white"/>
<path d="M139.4 32.32C138.373 32.32 137.407 32.1333 136.5 31.76C135.607 31.3867 134.813 30.8667 134.12 30.2C133.427 29.52 132.88 28.7267 132.48 27.82C132.093 26.9 131.9 25.9067 131.9 24.84C131.9 23.7733 132.093 22.7867 132.48 21.88C132.88 20.96 133.42 20.1667 134.1 19.5C134.793 18.82 135.593 18.2933 136.5 17.92C137.407 17.5467 138.373 17.36 139.4 17.36C140.493 17.36 141.5 17.5533 142.42 17.94C143.353 18.3267 144.133 18.8667 144.76 19.56L143.24 21.06C142.773 20.54 142.213 20.14 141.56 19.86C140.92 19.58 140.2 19.44 139.4 19.44C138.453 19.44 137.58 19.6667 136.78 20.12C135.98 20.56 135.333 21.1867 134.84 22C134.36 22.8 134.12 23.7467 134.12 24.84C134.12 25.9333 134.367 26.8867 134.86 27.7C135.353 28.5 136 29.1267 136.8 29.58C137.6 30.02 138.473 30.24 139.42 30.24C140.287 30.24 141.073 30.08 141.78 29.76C142.487 29.4267 143.053 28.96 143.48 28.36C143.92 27.76 144.187 27.04 144.28 26.2H139.38V24.26H146.34C146.42 24.62 146.46 25 146.46 25.4V25.42C146.46 26.8067 146.153 28.02 145.54 29.06C144.94 30.0867 144.107 30.8867 143.04 31.46C141.973 32.0333 140.76 32.32 139.4 32.32ZM152.9 32.32C151.847 32.32 150.92 32.08 150.12 31.6C149.32 31.12 148.693 30.4733 148.24 29.66C147.787 28.8467 147.56 27.9267 147.56 26.9C147.56 25.8867 147.787 24.9733 148.24 24.16C148.693 23.3333 149.32 22.68 150.12 22.2C150.92 21.72 151.847 21.48 152.9 21.48C153.94 21.48 154.86 21.72 155.66 22.2C156.46 22.68 157.087 23.3333 157.54 24.16C157.993 24.9733 158.22 25.8867 158.22 26.9C158.22 27.9267 157.993 28.8467 157.54 29.66C157.087 30.4733 156.46 31.12 155.66 31.6C154.86 32.08 153.94 32.32 152.9 32.32ZM152.9 30.34C153.46 30.34 153.98 30.2067 154.46 29.94C154.94 29.66 155.327 29.2667 155.62 28.76C155.927 28.24 156.08 27.62 156.08 26.9C156.08 26.18 155.927 25.5667 155.62 25.06C155.327 24.54 154.94 24.1467 154.46 23.88C153.98 23.6 153.46 23.46 152.9 23.46C152.34 23.46 151.813 23.6 151.32 23.88C150.84 24.1467 150.447 24.54 150.14 25.06C149.847 25.5667 149.7 26.18 149.7 26.9C149.7 27.62 149.847 28.24 150.14 28.76C150.447 29.2667 150.84 29.66 151.32 29.94C151.813 30.2067 152.34 30.34 152.9 30.34ZM165.009 32.32C163.956 32.32 163.029 32.08 162.229 31.6C161.429 31.12 160.803 30.4733 160.349 29.66C159.896 28.8467 159.669 27.9267 159.669 26.9C159.669 25.8867 159.896 24.9733 160.349 24.16C160.803 23.3333 161.429 22.68 162.229 22.2C163.029 21.72 163.956 21.48 165.009 21.48C166.049 21.48 166.969 21.72 167.769 22.2C168.569 22.68 169.196 23.3333 169.649 24.16C170.103 24.9733 170.329 25.8867 170.329 26.9C170.329 27.9267 170.103 28.8467 169.649 29.66C169.196 30.4733 168.569 31.12 167.769 31.6C166.969 32.08 166.049 32.32 165.009 32.32ZM165.009 30.34C165.569 30.34 166.089 30.2067 166.569 29.94C167.049 29.66 167.436 29.2667 167.729 28.76C168.036 28.24 168.189 27.62 168.189 26.9C168.189 26.18 168.036 25.5667 167.729 25.06C167.436 24.54 167.049 24.1467 166.569 23.88C166.089 23.6 165.569 23.46 165.009 23.46C164.449 23.46 163.923 23.6 163.429 23.88C162.949 24.1467 162.556 24.54 162.249 25.06C161.956 25.5667 161.809 26.18 161.809 26.9C161.809 27.62 161.956 28.24 162.249 28.76C162.556 29.2667 162.949 29.66 163.429 29.94C163.923 30.2067 164.449 30.34 165.009 30.34ZM176.919 36.64C176.025 36.64 175.252 36.4933 174.599 36.2C173.959 35.92 173.439 35.5533 173.039 35.1C172.639 34.66 172.352 34.2067 172.179 33.74L174.179 32.9C174.392 33.4333 174.732 33.8667 175.199 34.2C175.679 34.5467 176.252 34.72 176.919 34.72C177.852 34.72 178.585 34.44 179.119 33.88C179.665 33.32 179.939 32.5267 179.939 31.5V30.52H179.819C179.499 31 179.052 31.3867 178.479 31.68C177.919 31.96 177.279 32.1 176.559 32.1C175.692 32.1 174.899 31.88 174.179 31.44C173.459 31 172.879 30.3867 172.439 29.6C171.999 28.8 171.779 27.8667 171.779 26.8C171.779 25.72 171.999 24.7867 172.439 24C172.879 23.2 173.459 22.58 174.179 22.14C174.899 21.7 175.692 21.48 176.559 21.48C177.279 21.48 177.919 21.6267 178.479 21.92C179.052 22.2133 179.499 22.6 179.819 23.08H179.939V21.8H181.999V31.46C181.999 32.5667 181.779 33.5067 181.339 34.28C180.912 35.0533 180.319 35.64 179.559 36.04C178.799 36.44 177.919 36.64 176.919 36.64ZM176.939 30.14C177.472 30.14 177.965 30.0133 178.419 29.76C178.872 29.4933 179.239 29.1133 179.519 28.62C179.799 28.1133 179.939 27.5067 179.939 26.8C179.939 26.0667 179.799 25.4533 179.519 24.96C179.239 24.4533 178.872 24.0733 178.419 23.82C177.965 23.5667 177.472 23.44 176.939 23.44C176.405 23.44 175.905 23.5733 175.439 23.84C174.985 24.0933 174.619 24.4667 174.339 24.96C174.059 25.4533 173.919 26.0667 173.919 26.8C173.919 27.52 174.059 28.1333 174.339 28.64C174.619 29.1333 174.985 29.5067 175.439 29.76C175.905 30.0133 176.405 30.14 176.939 30.14ZM184.546 32V17.68H186.706V32H184.546ZM193.815 32.32C192.815 32.32 191.921 32.0867 191.135 31.62C190.348 31.1533 189.728 30.5133 189.275 29.7C188.835 28.8867 188.615 27.96 188.615 26.92C188.615 25.9467 188.828 25.0467 189.255 24.22C189.681 23.3933 190.275 22.7333 191.035 22.24C191.808 21.7333 192.695 21.48 193.695 21.48C194.748 21.48 195.641 21.7067 196.375 22.16C197.121 22.6133 197.688 23.2333 198.075 24.02C198.461 24.8067 198.655 25.6933 198.655 26.68C198.655 26.8267 198.648 26.96 198.635 27.08C198.635 27.2 198.628 27.2933 198.615 27.36H190.735C190.841 28.3733 191.195 29.1333 191.795 29.64C192.408 30.1467 193.101 30.4 193.875 30.4C194.568 30.4 195.141 30.2467 195.595 29.94C196.048 29.62 196.408 29.2267 196.675 28.76L198.455 29.62C198.015 30.42 197.415 31.0733 196.655 31.58C195.895 32.0733 194.948 32.32 193.815 32.32ZM193.715 23.32C192.995 23.32 192.381 23.54 191.875 23.98C191.368 24.42 191.028 25.0067 190.855 25.74H196.515C196.488 25.3933 196.375 25.0333 196.175 24.66C195.975 24.2867 195.668 23.9733 195.255 23.72C194.855 23.4533 194.341 23.32 193.715 23.32ZM207.446 32L203.606 17.68H206.046L208.326 26.98L208.566 28.22H208.686L208.986 26.98L211.866 17.68H214.066L216.826 26.98L217.126 28.2H217.246L217.486 26.98L219.766 17.68H222.186L218.406 32H216.086L213.346 22.5L213.026 21.16H212.906L212.566 22.5L209.706 32H207.446ZM226.202 32.32C225.469 32.32 224.816 32.18 224.242 31.9C223.669 31.6067 223.222 31.2 222.902 30.68C222.582 30.16 222.422 29.5667 222.422 28.9C222.422 28.18 222.609 27.5667 222.982 27.06C223.369 26.54 223.882 26.1467 224.522 25.88C225.162 25.6133 225.869 25.48 226.642 25.48C227.282 25.48 227.842 25.54 228.322 25.66C228.816 25.78 229.189 25.9067 229.442 26.04V25.5C229.442 24.8333 229.202 24.3 228.722 23.9C228.242 23.5 227.622 23.3 226.862 23.3C226.342 23.3 225.849 23.42 225.382 23.66C224.916 23.8867 224.542 24.2 224.262 24.6L222.782 23.46C223.222 22.8467 223.802 22.3667 224.522 22.02C225.256 21.66 226.056 21.48 226.922 21.48C228.402 21.48 229.542 21.8467 230.342 22.58C231.142 23.3 231.542 24.3133 231.542 25.62V32H229.442V30.74H229.322C229.056 31.1533 228.656 31.52 228.122 31.84C227.589 32.16 226.949 32.32 226.202 32.32ZM226.582 30.56C227.142 30.56 227.636 30.4267 228.062 30.16C228.489 29.8933 228.822 29.5467 229.062 29.12C229.316 28.68 229.442 28.2067 229.442 27.7C229.136 27.5267 228.776 27.3867 228.362 27.28C227.949 27.16 227.509 27.1 227.042 27.1C226.162 27.1 225.536 27.28 225.162 27.64C224.789 27.9867 224.602 28.4133 224.602 28.92C224.602 29.4 224.782 29.7933 225.142 30.1C225.502 30.4067 225.982 30.56 226.582 30.56ZM233.94 32V17.68H236.1V32H233.94ZM238.667 32V17.68H240.827V32H238.667ZM247.936 32.32C246.936 32.32 246.042 32.0867 245.256 31.62C244.469 31.1533 243.849 30.5133 243.396 29.7C242.956 28.8867 242.736 27.96 242.736 26.92C242.736 25.9467 242.949 25.0467 243.376 24.22C243.802 23.3933 244.396 22.7333 245.156 22.24C245.929 21.7333 246.816 21.48 247.816 21.48C248.869 21.48 249.762 21.7067 250.496 22.16C251.242 22.6133 251.809 23.2333 252.196 24.02C252.582 24.8067 252.776 25.6933 252.776 26.68C252.776 26.8267 252.769 26.96 252.756 27.08C252.756 27.2 252.749 27.2933 252.736 27.36H244.856C244.962 28.3733 245.316 29.1333 245.916 29.64C246.529 30.1467 247.222 30.4 247.996 30.4C248.689 30.4 249.262 30.2467 249.716 29.94C250.169 29.62 250.529 29.2267 250.796 28.76L252.576 29.62C252.136 30.42 251.536 31.0733 250.776 31.58C250.016 32.0733 249.069 32.32 247.936 32.32ZM247.836 23.32C247.116 23.32 246.502 23.54 245.996 23.98C245.489 24.42 245.149 25.0067 244.976 25.74H250.636C250.609 25.3933 250.496 25.0333 250.296 24.66C250.096 24.2867 249.789 23.9733 249.376 23.72C248.976 23.4533 248.462 23.32 247.836 23.32ZM255.567 29.04V23.68H253.787V21.8H255.567V18.92H257.727V21.8H260.227V23.68H257.727V28.58C257.727 29.0867 257.827 29.4733 258.027 29.74C258.24 30.0067 258.593 30.14 259.087 30.14C259.34 30.14 259.553 30.1067 259.727 30.04C259.913 29.9733 260.1 29.88 260.287 29.76V31.86C260.06 31.9533 259.82 32.0267 259.567 32.08C259.313 32.1333 259.013 32.16 258.667 32.16C257.72 32.16 256.967 31.8867 256.407 31.34C255.847 30.78 255.567 30.0133 255.567 29.04Z" fill="white"/>
<rect x="0.5" y="0.5" width="282" height="49" rx="24.5" stroke="#747775"/>
<defs>
<linearGradient id="paint0_linear_1819_24139" x1="34.5703" y1="30.7864" x2="18.7309" y2="48.9133" gradientUnits="userSpaceOnUse">
<stop stop-color="#4285F4"/>
<stop offset="1" stop-color="#1B74E8"/>
</linearGradient>
</defs>
</svg>
